packages/kaspersky-hexa-ui-icons/src/iconsSVGs/24/UnknownDrive.svg

<svg width="24" height="24" viewBox="0 0 24 24" fill="none" xmlns="http://www.w3.org/2000/svg">
<path d="M12.8196 16.4993C12.8196 17.0992 12.3333 17.5855 11.7334 17.5855C11.1335 17.5855 10.6472 17.0992 10.6472 16.4993C10.6472 15.8994 11.1335 15.4131 11.7334 15.4131C12.3333 15.4131 12.8196 15.8994 12.8196 16.4993Z" fill="black"/>
<path d="M10.561 9.98221C10.561 9.34598 11.0935 8.80984 11.7523 8.80984C12.3904 8.80984 12.9058 9.32917 12.9058 9.94466V10.2679C12.9058 10.5987 12.6807 10.887 12.3598 10.9672C11.404 11.2062 10.7334 12.065 10.7334 13.0503V13.7838C10.7334 14.3361 11.1811 14.7838 11.7334 14.7838C12.2857 14.7838 12.7334 14.3361 12.7334 13.7838V13.0503C12.7334 12.9827 12.7794 12.9239 12.8449 12.9075C14.0561 12.6047 14.9058 11.5164 14.9058 10.2679V9.94466C14.9058 8.2021 13.4723 6.80984 11.7523 6.80984C10.0116 6.80984 8.56104 8.21891 8.56104 9.98221C8.56104 10.5345 9.00875 10.9822 9.56104 10.9822C10.1133 10.9822 10.561 10.5345 10.561 9.98221Z" fill="black"/>
<path fill-rule="evenodd" clip-rule="evenodd" d="M4 5C4 3.34315 5.34315 2 7 2H17C18.6569 2 20 3.34315 20 5V19C20 20.6569 18.6569 22 17 22H7C5.34315 22 4 20.6569 4 19V5ZM7 4C6.44772 4 6 4.44772 6 5V19C6 19.5523 6.44772 20 7 20H17C17.5523 20 18 19.5523 18 19V5C18 4.44772 17.5523 4 17 4H7Z" fill="black"/>
</svg>

<svg xmlns="http://www.w3.org/2000/svg" width="24" height="24" fill="none" viewBox="0 0 24 24"><path fill="#000" fill-rule="evenodd" d="M7 2C5.3431 2 4 3.3431 4 5v14c0 1.6569 1.3431 3 3 3h10c1.6569 0 3-1.3431 3-3V5c0-1.6569-1.3431-3-3-3zM6 5c0-.5523.4477-1 1-1h10c.5523 0 1 .4477 1 1v14c0 .5523-.4477 1-1 1H7c-.5523 0-1-.4477-1-1zm4.561 4.9822c0-.6362.5325-1.1724 1.1913-1.1724.6381 0 1.1535.5194 1.1535 1.1349v.3232a.721.721 0 0 1-.546.6993 2.147 2.147 0 0 0-1.6264 2.0831v.7335c0 .5523.4477 1 1 1s1-.4477 1-1v-.7335c0-.0676.046-.1264.1115-.1428 1.2112-.3028 2.0609-1.3911 2.0609-2.6396v-.3232c0-1.7426-1.4335-3.1349-3.1535-3.1349-1.7407 0-3.1913 1.4091-3.1913 3.1724 0 .5523.4478 1 1 1s1-.4477 1-1m2.2586 6.5171c0 .5999-.4863 1.0862-1.0862 1.0862s-1.0862-.4863-1.0862-1.0862.4863-1.0862 1.0862-1.0862 1.0862.4863 1.0862 1.0862"/></svg>
